!!!OTL: Gertrud.
!!!OTL-incipit: ES IST KEIN AEPFELCHEN SO ROTH
!!!ARE: Europa, Mitteleuropa, Deutschland, Westfalen
!!!SCT: Z1115
!!!TXL: @@DE
!!!YEM: Copyright 1995, estate of Helmut Schaffrath.
**kern	**text
*ICvox	*
*M2/4	*
*k[b-e-a-d-]	*
*A-:	*
!LO:TX:a:t=Aus Weſtphalen.	!
!LO:TX:a:t=(Erinnert an die Sage von der heiligen Gertrud.)	!
({16ccL	Es
16b-J)	.
=1	=1
8a-	iſt
(16a-L	kein
16gJ)	.
16a-	Aepfelchen
16b-/	.
16cc	.
16ee-	ſo
=2	=2
8ccqq	.
8b-	roth,
16b-L	ſo
16a-J	.
8b-}	rund,
{16ccL	es
16b-J	.
=3	=3
16b-L	iſt
16a-J	.
16a-	auch
16g	ein
16a-L	Kern-
16b-J	.
16cc	-lein
16dd-	da-
=4	=4
8ccqq	.
4b-	-rin!
8r}	.
{16b-/L	keine
16ccJ	.
=5	=5
8dd-	Schwieger-
8dd-	.
8dd-	-mut-
16cc	-ter
16b-	ſo
=6	=6
8cc	hübſch
16ee-	und
16cc	ſo
8a-}	fein,
{8a-	ſie
=7	=7
16b-L	hat
16dd-J	.
16cc	ei-
16b-	-nen
8cc	fal-
8b-	-ſchen
=8	=8
4a-	Sinn!
8r}	.
==	==
!!!AGN: Romanze, Ballade, Maria, geistlich
!!!ONB: ESAC (Essen Associative Code) Database: ZUCCAL
!!!AMT: simple duple
!!!AIN: vox
!!!EED: Helmut Schaffrath
!!!EEV: 1.0
!!!GTL: II. Gau- Leuschen.
!!!URL-scan: https://www.digitale-sammlungen.de/de/view/bsb11160573?page=246
!!!ENC: Anna Maria Matuszewska
!!!EEV: 2025/02/04
*-	*-
